X:5728
T:Gan Ainm
R:reel
S:Declan Corey (Mandola)
H:
N: 
D:Milltown Session 
Z:Adrian Scahill
M:4/4
L:1/8
K:D
F2DF AFEF|DFAF EFDE|F2 dD cDBD|AFDF (3EFE DE|\
F2DF AFEF|DFAF EFDA|dB (3cBA BcdB|AFEF D4:||\
fedf efdf|afdf edBd|fedf efdf|afdf e2de|\
f2af eafe|dfed BcdA|B2dB AFDF |EDEF D4:||
